32x32/apps/chrome-defekohaofmambflfpfoojkmfdpcbgko-Default.svg

<svg xmlns="http://www.w3.org/2000/svg" width="32" height="32" version="1">
 <defs>
  <linearGradient id="linearGradient4282" x1="409.57" x2="409.57" y1="540.8" y2="506.8" gradientTransform="matrix(.11765 0 0 .11765 -32.067 -77.623)" gradientUnits="userSpaceOnUse">
   <stop offset="0" stop-color="#2a2c2f"/>
   <stop offset="1" stop-color="#424649"/>
  </linearGradient>
 </defs>
 <path fill="#4f4f4f" d="m31 16a15 15 0 0 1 -15 15 15 15 0 0 1 -15 -15 15 15 0 0 1 15 -15 15 15 0 0 1 15 15z"/>
 <path fill="#fff" opacity=".1" d="m16 1a15 15 0 0 0 -15 15 15 15 0 0 0 0.0195 0.586 15 15 0 0 1 14.98 -14.586 15 15 0 0 1 14.98 14.414 15 15 0 0 0 0.02 -0.414 15 15 0 0 0 -15 -15z"/>
 <path fill="#fff" opacity=".1" d="m7.6861 3.5318c-4.0255 2.6845-6.6694 7.2642-6.6694 12.486h12c0-1.2157 0.727-2.2563 1.7666-2.7275l-7.0993-9.7576z"/>
 <path fill="#fff" opacity=".1" d="m24.314 28.468c4.0256-2.6845 6.6694-7.2642 6.6694-12.486h-12c0 1.2157-0.727 2.2563-1.7666 2.7275l7.0972 9.7588z"/>
 <rect fill="#fe774b" width="12" height="12" x="10" y="10" ry="6"/>
 <rect fill="url(#linearGradient4282)" width="4" height="4" x="14" y="-18" ry="2" transform="scale(1,-1)"/>
 <path opacity=".2" d="m30.98 16.414a15 15 0 0 1 -14.98 14.586 15 15 0 0 1 -14.98 -14.414 15 15 0 0 0 -0.02 0.414 15 15 0 0 0 15 15 15 15 0 0 0 15 -15 15 15 0 0 0 -0.02 -0.586z"/>
 <path style="opacity:0.5;fill:#f4f4f7" d="M 16 11 C 13.23 11 11 13.23 11 16 C 11 18.77 13.23 21 16 21 C 18.77 21 21 18.77 21 16 C 21 13.23 18.77 11 16 11 z M 16 12 C 18.216 12 20 13.784 20 16 C 20 18.216 18.216 20 16 20 C 13.784 20 12 18.216 12 16 C 12 13.784 13.784 12 16 12 z"/>
</svg>

<svg xmlns="http://www.w3.org/2000/svg" width="32" height="32" version="1"><defs><linearGradient id="a" x1="409.57" x2="409.57" y1="540.8" y2="506.8" gradientTransform="translate(-32.067 -77.623) scale(.11765)" gradientUnits="userSpaceOnUse"><stop offset="0" stop-color="#2a2c2f"/><stop offset="1" stop-color="#424649"/></linearGradient></defs><path fill="#4f4f4f" d="M31 16a15 15 0 0 1-15 15A15 15 0 0 1 1 16 15 15 0 0 1 16 1a15 15 0 0 1 15 15z"/><path fill="#fff" opacity=".1" d="M16 1A15 15 0 0 0 1 16a15 15 0 0 0 .02.586A15 15 0 0 1 16 2a15 15 0 0 1 14.98 14.414A15 15 0 0 0 31 16 15 15 0 0 0 16 1z"/><path fill="#fff" opacity=".1" d="M7.686 3.532a14.96 14.96 0 0 0-6.67 12.486h12c0-1.216.728-2.256 1.767-2.728L7.684 3.533zM24.314 28.468a14.959 14.959 0 0 0 6.67-12.486h-12a2.995 2.995 0 0 1-1.767 2.728l7.097 9.758z"/><rect fill="#fe774b" width="12" height="12" x="10" y="10" ry="6"/><rect fill="url(#a)" width="4" height="4" x="14" y="-18" ry="2" transform="scale(1 -1)"/><path opacity=".2" d="M30.98 16.414A15 15 0 0 1 16 31 15 15 0 0 1 1.02 16.586 15 15 0 0 0 1 17a15 15 0 0 0 15 15 15 15 0 0 0 15-15 15 15 0 0 0-.02-.586z"/><path style="opacity:.5;fill:#f4f4f7" d="M16 11c-2.77 0-5 2.23-5 5s2.23 5 5 5 5-2.23 5-5-2.23-5-5-5zm0 1c2.216 0 4 1.784 4 4s-1.784 4-4 4-4-1.784-4-4 1.784-4 4-4z"/></svg>
